src/assets/fleet-icons/yellow_repair.svg

<svg width="20" height="20" viewBox="0 0 20 20" fill="none" xmlns="http://www.w3.org/2000/svg">
<circle cx="10" cy="10" r="9.5" stroke="#FFB114"/>
<circle cx="10" cy="10" r="9" fill="#F4F4F4"/>
<path d="M14.303 7.90285C14.2953 7.85723 14.2627 7.81976 14.2187 7.80568C14.1746 7.79161 14.1263 7.80326 14.0936 7.83597L13.5434 8.38617C13.2905 8.63912 12.8804 8.63912 12.6274 8.38617L11.9472 7.70595C11.6943 7.453 11.6943 7.04287 11.9472 6.78993L12.4974 6.23973C12.5301 6.207 12.5419 6.15873 12.5278 6.11462C12.5137 6.07053 12.4762 6.03807 12.4305 6.03034C11.801 5.9236 11.1517 6.098 10.6885 6.56128C10.1649 7.08488 10.0104 7.84602 10.2136 8.54774L6.32557 12.4357C5.89148 12.8698 5.89148 13.5736 6.32557 14.0078C6.75967 14.4419 7.46351 14.4419 7.89763 14.0078L11.7856 10.1198C12.4873 10.323 13.2485 10.1685 13.7721 9.64493C14.2353 9.18165 14.4097 8.53238 14.303 7.90285ZM7.4884 13.4213C7.32925 13.5804 7.07121 13.5804 6.91205 13.4213C6.7529 13.2621 6.7529 13.0041 6.91205 12.8449C7.0712 12.6858 7.32924 12.6858 7.4884 12.8449C7.64756 13.0041 7.64755 13.2621 7.4884 13.4213Z" fill="#FFB114"/>
</svg>

<svg width="20" height="20" fill="none" xmlns="http://www.w3.org/2000/svg">
    <circle cx="10" cy="10" r="9.5" stroke="#FFB114" />
    <circle cx="10" cy="10" r="9" fill="#F4F4F4" />
    <path
        d="M14.303 7.903a.124.124 0 0 0-.21-.067l-.55.55a.648.648 0 0 1-.916 0l-.68-.68a.648.648 0 0 1 0-.916l.55-.55a.124.124 0 0 0-.066-.21c-.63-.106-1.28.068-1.742.531-.524.524-.679 1.285-.475 1.987l-3.888 3.888a1.112 1.112 0 0 0 1.572 1.572l3.888-3.888c.701.203 1.463.049 1.986-.475.463-.463.638-1.113.531-1.742ZM7.488 13.42a.408.408 0 1 1-.576-.576.408.408 0 0 1 .576.576Z"
        fill="#FFB114" />
</svg>
